img/icons/social/Github_menu.svg

<svg width="20" height="19" viewBox="0 0 20 19" fill="none" xmlns="http://www.w3.org/2000/svg">
<path d="M10 0C4.475 0 0 4.36167 0 9.74107C0 14.0457 2.865 17.6962 6.8375 18.9832C7.3375 19.0749 7.52083 18.7734 7.52083 18.5148C7.52083 18.2835 7.5125 17.6706 7.50833 16.8585C4.72667 17.4459 4.14 15.5517 4.14 15.5517C3.685 14.4274 3.0275 14.1267 3.0275 14.1267C2.12167 13.5228 3.0975 13.5352 3.0975 13.5352C4.10167 13.603 4.62917 14.5389 4.62917 14.5389C5.52083 16.0283 6.97 15.5979 7.54167 15.3493C7.63167 14.719 7.88917 14.2903 8.175 14.0466C5.95417 13.8029 3.62 12.9652 3.62 9.23304C3.62 8.16988 4.0075 7.30085 4.64917 6.61934C4.53667 6.37317 4.19917 5.3827 4.73667 4.04116C4.73667 4.04116 5.57417 3.78012 7.48667 5.03988C8.28667 4.82345 9.13667 4.71606 9.98667 4.7111C10.8367 4.71606 11.6867 4.82345 12.4867 5.03988C14.3867 3.78012 15.2242 4.04116 15.2242 4.04116C15.7617 5.3827 15.4242 6.37317 15.3242 6.61934C15.9617 7.30085 16.3492 8.16988 16.3492 9.23304C16.3492 12.9752 14.0117 13.7987 11.7867 14.0383C12.1367 14.3307 12.4617 14.928 12.4617 15.8408C12.4617 17.1444 12.4492 18.1918 12.4492 18.5082C12.4492 18.7635 12.6242 19.0683 13.1367 18.9708C17.1375 17.692 20 14.0391 20 9.74107C20 4.36167 15.5225 0 10 0Z" fill="black"/>
</svg>

<svg width="20" height="19" fill="none" xmlns="http://www.w3.org/2000/svg"><path d="M10 0C4.475 0 0 4.362 0 9.741c0 4.305 2.865 7.955 6.838 9.242.5.092.683-.21.683-.468 0-.232-.008-.844-.013-1.657-2.781.588-3.368-1.306-3.368-1.306-.455-1.125-1.112-1.425-1.112-1.425-.906-.604.07-.592.07-.592 1.004.068 1.531 1.004 1.531 1.004.892 1.49 2.341 1.059 2.913.81.09-.63.347-1.059.633-1.302-2.22-.244-4.555-1.082-4.555-4.814 0-1.063.388-1.932 1.03-2.614-.113-.246-.45-1.236.087-2.578 0 0 .837-.26 2.75.999a9.82 9.82 0 012.5-.329c.85.005 1.7.112 2.5.329 1.9-1.26 2.737-.999 2.737-.999.538 1.342.2 2.332.1 2.578a3.719 3.719 0 011.025 2.614c0 3.742-2.337 4.566-4.562 4.805.35.293.675.89.675 1.803 0 1.303-.013 2.35-.013 2.667 0 .256.175.56.688.463 4-1.279 6.863-4.932 6.863-9.23C20 4.361 15.523 0 10 0z" fill="#000"/></svg>
